contributed-vectors/revue_starlight_re_live_alt.svg

<svg xmlns="http://www.w3.org/2000/svg" width="192" height="192" fill="none"><g clip-path="url(#a)"><g clip-path="url(#b)"><path fill="#FF837D" d="M172.6 29.5v133.6c0 5.3-4.3 9.5-9.5 9.5H29.5c-5.3 0-9.5-4.3-9.5-9.5V29.5c0-5.2 4.3-9.5 9.5-9.5h133.6c5.3 0 9.5 4.3 9.5 9.5Z"/><path fill="#fff" d="M91.4 82.7c0-.9 3.5-.5 6-3 2.4-2.4 2-5.9 2.9-5.9.9 0 .6 3.5 3 5.9 2.4 2.4 5.9 2.1 5.9 2.9 0 .9-3.5.6-5.9 3-2.4 2.4-2.1 5.9-3 5.9-.9 0-.5-3.5-2.9-5.9-2.5-2.3-6-2-6-2.9ZM105.3 96.3c0-.9 3.5-.5 6-3 2.4-2.4 2-5.9 2.9-5.9.9 0 .6 3.5 3 5.9 2.4 2.4 5.9 2.1 5.9 2.9 0 .9-3.5.6-5.9 3-2.4 2.4-2.1 5.9-3 5.9-.9 0-.5-3.5-2.9-5.9-2.5-2.3-6-2-6-2.9ZM77.7 68.7c0-.9 3.5-.5 6-3 2.4-2.4 2-5.9 2.9-5.9.9 0 .6 3.5 3 5.9 2.4 2.4 5.9 2.1 5.9 2.9 0 .9-3.5.6-5.9 3-2.4 2.4-2.1 5.9-3 5.9-.9 0-.5-3.5-2.9-5.9-2.5-2.4-6-2-6-2.9ZM91.3 109.9c0 .9 3.5.5 6 3 2.4 2.4 2 5.9 2.9 5.9.9 0 .6-3.5 3-5.9 2.4-2.4 5.9-2.1 5.9-2.9 0-.9-3.5-.6-5.9-3-2.4-2.4-2.1-5.9-3-5.9-.9 0-.5 3.5-2.9 5.9-2.4 2.4-6 2-6 2.9ZM77.6 123.9c0 .9 3.5.5 6 3 2.4 2.4 2 5.9 2.9 5.9.9 0 .6-3.5 3-5.9 2.4-2.4 5.9-2.1 5.9-2.9 0-.9-3.5-.6-5.9-3-2.4-2.4-2.1-5.9-3-5.9-.9 0-.5 3.5-2.9 5.9-2.5 2.4-6 2-6 2.9Z"/></g></g><defs><clipPath id="a"><path fill="#fff" d="M0 0h192v192H0z"/></clipPath><clipPath id="b"><path fill="#fff" d="M20 20h152.6v152.6H20z"/></clipPath></defs></svg>

<svg width="192" height="192" viewBox="0 0 192 192" fill="none" xmlns="http://www.w3.org/2000/svg">
<g clip-path="url(#clip0)">
<g clip-path="url(#clip1)">
<path d="M172.6 29.5V163.1C172.6 168.4 168.3 172.6 163.1 172.6H29.5C24.2 172.6 20 168.3 20 163.1V29.5C20 24.3 24.3 20 29.5 20H163.1C168.4 20 172.6 24.3 172.6 29.5Z" fill="#FF837D"/>
<path d="M91.4 82.7C91.4 81.8 94.9 82.2 97.4 79.7C99.8 77.3 99.4 73.8 100.3 73.8C101.2 73.8 100.9 77.3 103.3 79.7C105.7 82.1 109.2 81.8 109.2 82.6C109.2 83.5 105.7 83.2 103.3 85.6C100.9 88 101.2 91.5 100.3 91.5C99.4 91.5 99.8 88 97.4 85.6C94.9 83.3 91.4 83.6 91.4 82.7Z" fill="white"/>
<path d="M105.3 96.3C105.3 95.4 108.8 95.8 111.3 93.3C113.7 90.9 113.3 87.4 114.2 87.4C115.1 87.4 114.8 90.9 117.2 93.3C119.6 95.7 123.1 95.4 123.1 96.2C123.1 97.1 119.6 96.8 117.2 99.2C114.8 101.6 115.1 105.1 114.2 105.1C113.3 105.1 113.7 101.6 111.3 99.2C108.8 96.9 105.3 97.2 105.3 96.3Z" fill="white"/>
<path d="M77.7 68.7C77.7 67.8 81.2 68.2 83.7 65.7C86.1 63.3 85.7 59.8 86.6 59.8C87.5 59.8 87.2 63.3 89.6 65.7C92 68.1 95.5 67.8 95.5 68.6C95.5 69.5 92 69.2 89.6 71.6C87.2 74 87.5 77.5 86.6 77.5C85.7 77.5 86.1 74 83.7 71.6C81.2 69.2 77.7 69.6 77.7 68.7Z" fill="white"/>
<path d="M91.3 109.9C91.3 110.8 94.8 110.4 97.3 112.9C99.7 115.3 99.3 118.8 100.2 118.8C101.1 118.8 100.8 115.3 103.2 112.9C105.6 110.5 109.1 110.8 109.1 110C109.1 109.1 105.6 109.4 103.2 107C100.8 104.6 101.1 101.1 100.2 101.1C99.3 101.1 99.7 104.6 97.3 107C94.9 109.4 91.3 109 91.3 109.9Z" fill="white"/>
<path d="M77.6 123.9C77.6 124.8 81.1 124.4 83.6 126.9C86 129.3 85.6 132.8 86.5 132.8C87.4 132.8 87.1 129.3 89.5 126.9C91.9 124.5 95.4 124.8 95.4 124C95.4 123.1 91.9 123.4 89.5 121C87.1 118.6 87.4 115.1 86.5 115.1C85.6 115.1 86 118.6 83.6 121C81.1 123.4 77.6 123 77.6 123.9Z" fill="white"/>
</g>
</g>
<defs>
<clipPath id="clip0">
<rect width="192" height="192" fill="white"/>
</clipPath>
<clipPath id="clip1">
<rect width="152.6" height="152.6" fill="white" transform="translate(20 20)"/>
</clipPath>
</defs>
</svg>
